%
(contour-1-flat.nc)
(T1  D=3 CR=0 TAPER=118deg - ZMIN=-3.1 - drill)
G90 G94
G17
G21
G28 G91 Z0
G90

(Drill1)
M9
T1 M6
S2000 M3
G54
M9
G0 X139 Y13
Z15
Z5
Z4.9
G1 Z-3.1 F100
G0 Z5
X121
Z4.9
G1 Z-3.1 F100
G0 Z5
X103
Z4.9
G1 Z-3.1 F100
G0 Z5
X85
Z4.9
G1 Z-3.1 F100
G0 Z5
X67
Z4.9
G1 Z-3.1 F100
G0 Z5
X49
Z4.9
G1 Z-3.1 F100
G0 Z5
X31
Z4.9
G1 Z-3.1 F100
G0 Z5
X13
Z4.9
G1 Z-3.1 F100
G0 Z5
Y31
Z4.9
G1 Z-3.1 F100
G0 Z5
X31
Z4.9
G1 Z-3.1 F100
G0 Z5
X49
Z4.9
G1 Z-3.1 F100
G0 Z5
X67
Z4.9
G1 Z-3.1 F100
G0 Z5
X85
Z4.9
G1 Z-3.1 F100
G0 Z5
X103
Z4.9
G1 Z-3.1 F100
G0 Z5
X121
Z4.9
G1 Z-3.1 F100
G0 Z5
X139
Z4.9
G1 Z-3.1 F100
G0 Z5
X13 Y49
Z4.9
G1 Z-3.1 F100
G0 Z5
X31
Z4.9
G1 Z-3.1 F100
G0 Z5
X49
Z4.9
G1 Z-3.1 F100
G0 Z5
X67
Z4.9
G1 Z-3.1 F100
G0 Z5
X85
Z4.9
G1 Z-3.1 F100
G0 Z5
X103
Z4.9
G1 Z-3.1 F100
G0 Z5
X121
Z4.9
G1 Z-3.1 F100
G0 Z5
X139
Z4.9
G1 Z-3.1 F100
G0 Z5
Y67
Z4.9
G1 Z-3.1 F100
G0 Z5
X121
Z4.9
G1 Z-3.1 F100
G0 Z5
X103
Z4.9
G1 Z-3.1 F100
G0 Z5
X85
Z4.9
G1 Z-3.1 F100
G0 Z5
X67
Z4.9
G1 Z-3.1 F100
G0 Z5
X49
Z4.9
G1 Z-3.1 F100
G0 Z5
X31
Z4.9
G1 Z-3.1 F100
G0 Z5
X13
Z4.9
G1 Z-3.1 F100
G0 Z5
Y85
Z4.9
G1 Z-3.1 F100
G0 Z5
X31
Z4.9
G1 Z-3.1 F100
G0 Z5
X49
Z4.9
G1 Z-3.1 F100
G0 Z5
X67
Z4.9
G1 Z-3.1 F100
G0 Z5
X85
Z4.9
G1 Z-3.1 F100
G0 Z5
X103
Z4.9
G1 Z-3.1 F100
G0 Z5
X121
Z4.9
G1 Z-3.1 F100
G0 Z5
X139
Z4.9
G1 Z-3.1 F100
G0 Z5
Y103
Z4.9
G1 Z-3.1 F100
G0 Z5
X121
Z4.9
G1 Z-3.1 F100
G0 Z5
X103
Z4.9
G1 Z-3.1 F100
G0 Z5
X85
Z4.9
G1 Z-3.1 F100
G0 Z5
X67
Z4.9
G1 Z-3.1 F100
G0 Z5
X49
Z4.9
G1 Z-3.1 F100
G0 Z5
X31
Z4.9
G1 Z-3.1 F100
G0 Z5
X13
Z4.9
G1 Z-3.1 F100
G0 Z5
Y121
Z4.9
G1 Z-3.1 F100
G0 Z5
X31
Z4.9
G1 Z-3.1 F100
G0 Z5
X49
Z4.9
G1 Z-3.1 F100
G0 Z5
X67
Z4.9
G1 Z-3.1 F100
G0 Z5
X85
Z4.9
G1 Z-3.1 F100
G0 Z5
X103
Z4.9
G1 Z-3.1 F100
G0 Z5
X121
Z4.9
G1 Z-3.1 F100
G0 Z5
X139
Z4.9
G1 Z-3.1 F100
G0 Z5
Y139
Z4.9
G1 Z-3.1 F100
G0 Z5
X121
Z4.9
G1 Z-3.1 F100
G0 Z5
X103
Z4.9
G1 Z-3.1 F100
G0 Z5
X85
Z4.9
G1 Z-3.1 F100
G0 Z5
X67
Z4.9
G1 Z-3.1 F100
G0 Z5
X49
Z4.9
G1 Z-3.1 F100
G0 Z5
X31
Z4.9
G1 Z-3.1 F100
G0 Z5
X13
Z4.9
G1 Z-3.1 F100
G0 Z5
Z15
M9
G28 G91 Z0
G28 X0 Y0
M30
%
